X:1
T:James Gibb editions
T:Visita quaesumus - Byrd
T:#
%%score [ 1 2 3 4 ]
L:1/8
Q:1/4=84
M:4/4
K:F
V:1 treble nm="Alto I" snm="A I"
V:2 treble nm="Alto II" snm="A II"
V:3 treble-8 nm="Tenor" snm="T"
V:4 bass nm="Bass" snm="B"
V:1
"^Visita quaesumus Domine""^William Byrd\n(1540-1623)" z8 | z8 | z8 | z2 C3 D E2 | F3 F D2 (G2- | %5
w: |||Vi- si- ta|quae- su- mus Do\-|
 GF F4) E2 |[M:4/4] F4 z2 A2- | AGAB c2 A2 | (G2 FE DE F2 | C2 D2 E2 F2- | FGAF B4) | A2 A3 GAB | %12
w: * * * mi-|ne, ha\-|* bi- ta- ti- o- nem|i\- * * * * *|||stam, ha- bi- ta- ti-|
 c2 F2 (EDEF | G4) G4 | z2 A2 A4 | G2 F2 F3 F | E2 G3 A (B2- | B2 AG F2 G2) | A4 z2 A2 | G2 A2 c4 | %20
w: o- nem i\- * * *|* stam,|et om-|nes in- si- di-|as i- ni- mi\-||ci ab|e- a lon-|
 C2 C2 F4 | E2 E (E2 D D2- | D2 ^C2) D2 F2 | (E2 F2) E4 | z2 A2 G2 A2 | c4 C2 F2 | B4 A4 | %27
w: ge re- pel-|le, re- pel\- * *|* * le, re-|pel\- * le,|ab e- a|lon- ge re-|pel- le,|
 A2 F4 D2 | z2 F2 E2 FA- | AA, (CDEC) (F2- | F2 E2) F4 || z2 F3 F F2 | G2 G2 A4 | G2 A3 A G2 | %34
w: re- pel- le,|ab e- a lon\-|* ge re\- * * * pel\-|* * le:|an- ge- li|tu- i san-|cti, an- ge- li|
 A2 B2 c4 | c4 z4 | c3 B A2 G2 | ^F4 G4 | z4 c3 B | A2 G2 A2 D2 | C2 (D2 E2 FG) | A4 z2 A2 | %42
w: tu- i san-|cti|ha- bi- tent in|e- a,|ha- bi-|tent in e- a,|in e\- * * *|a, qui|
 G2 A2 B4 | A2 F2 G3 G | F4 z4 | z8 | z4 C2 DC | F>E D2 (D F2 E | F>E D)C z4 | z2 F2 BA c>B | %50
w: nos in pa-|ce cu- sto- di-|ant:||et be- ne-|di- cti- o tu\- * *|* * * a,|et be- ne- di- cti-|
 A2 (F>G AG F2) | E4 z F F2 | DE F2 Cc c2 | GA B2 A2 z F | B2 AF (A3 G | F2 EF G2) C2 | %56
w: o tu\- * * * *|a sit su-|per nos sem- per, sit su-|per nos sem- per, sit|su- per nos sem\- *|* * * * per,|
 z2 z F c2 AB | (c2 G2) A4 | z2 A2 B3 A | G2 G G2 (A F2) | E4 E2 F2- | FF F>E D (C D2) | %62
w: sit su- per nos|sem\- * per.|Per Chri- stum|Do- mi- num no\- *|strum, per Chri\-|* stum Do- mi- num no\- *|
 E2 C3 B, A,2 | (G,2 F,/ G,/ A,/ B,/ C4) | !fermata!C8 || (D3 E F2 C2 | D3 E FGAB | A2 F2) C4 | %68
w: strum, Do- mi- num|no\- * * * * *|strum.|A\- * * *||* * men.|
 z4[Q:1/4=82] (F3[Q:1/4=80] G |[Q:1/4=79] A[Q:1/4=78]B[Q:1/4=77] c2[Q:1/4=75] F2[Q:1/4=74] B2- | %70
w: A\- *||
[Q:1/4=72] B2[Q:1/4=71] A[Q:1/4=70]G)[Q:1/4=70] !fermata!A4 |] %71
w: * * * men.|
V:2
 z2 C3 D E2 | F3 F D2 (G2- | GF F4) E2 | F2 F3 F G2 | A3 A G2 B2- | B2 A2 G4 |[M:4/4] z2 D3 CDE | %7
w: Vi- si- ta|quae- su- mus Do\-|* * * mi-|ne, vi- si- ta|quae- su- mus Do\-|* mi- ne,|ha- bi- ta- ti-|
 F2 C2 (E2 F2) | E2 z2 z4 | z2 A3 GAB | c2 A2 G4 | C2 F3 EFG | A6 A2 | D4 E4 | z2 F2 F4 | %15
w: o- nem i\- *|stam,|ha- bi- ta- ti-|o- nem i-|stam, ha- bi- ta- ti-|o- nem|i- stam,|et om-|
 C2 C2 D3 C | C4 z2 D2- | DE (F3 E D2- | D2 ^C2) D4 | z8 | z2 A2 A2 F2 | A4 A,2 D2 | G4 F2 A2 | %23
w: nes in- si- di-|as i\-|* ni- mi\- * *|* * ci||ab e- a|lon- ge re-|pel- le, ab|
 G2 A2 c3 C | E2 (F3 EFD | EF G2- GF F2- | F2 E2 F4) | z2 B,2 A,2 B,D- | DC A,2 C4- | C8 | C4 C4 || %31
w: e- a lon- ge|re- pel\- * * *||* * le,|ab e- a lon\-|* ge re- pel\-||* le:|
 z2 D3 D C2 | D2 E2 F4 | E2 F3 C E2 | D2 D2 A4 | G4 c3 B | A2 G2 (^F2 B2 | A4) D4 | A3 G F2 E2 | %39
w: an- ge- li|tu- i san-|cti, an- ge- li|tu- i san-|cti ha- bi-|tent in e\- *|* a,|ha- bi- tent in|
 F2 C2 c3 B | A2 G2 A4 | E4 z2 F2 | E2 F2 G2 D2 | z D2 F2 (E/D/ E2) | F2 A2 G2 A2 | B4 A2 F2 | %46
w: e- a, ha- bi-|tent in e-|a, qui|nos in pa- ce|cu- sto- di\- * *|ant, qui nos in|pa- ce cu-|
 G3 G F4 | z2 F2 BA c>B | A4 (F2 G2) | A4 D2 AG | c>B A2 (FG A2) | G2 z C D2 CA, | B,2 A,A A2 FD | %53
w: sto- di- ant:|et be- ne- di- cti-|o tu\- *|a, et be- ne-|di- cti- o tu\- * *|a sit su- per nos|sem- per, sit su- per nos|
 (E F2 E) F4 | z4 z F c2 | AB c2 C2 z G | A>F G (A2 G>FF- | FE/D/ E2) F4 | z2 F2 F3 F | %59
w: sem\- * * per,|sit su-|per nos sem- per, sit|su- per nos sem\- * * *|* * * * per.|Per Chri- stum|
 _E2 EE3/2 (D/ C2 =B,) |"^Siderum rector - Byrd" C4 z2 A2 | B3 A G3 G | G2 A3 G F2 | %63
w: Do- mi- num no\- * *|strum, per|Chri- stum Do- mi-|num, Do- mi- num|
 (E2 F3 E/ D/ E2) | !fermata!F8 || F6 F2 | (F3 G A2) D2 | (F3 G AB c2- | c2 AB) A4 | F8 | %70
w: no\- * * * *|strum.|A- men.|A\- * * men.|A\- * * * *|* * * men.|A-|
 !fermata!F8 |] %71
w: men.|
V:3
 z8 | z8 | z8 | z2 A3 F c2 | c3 c B4 | c3 c c4 |[M:4/4][K:treble-8] A2 B2 A4 | z2 A3 GAB | %8
w: |||Vi- si- ta|quae- su- mus|Do- mi- ne,|Do- mi- ne,|ha- bi- ta- ti-|
 c2 A2 (B4 | A2 F2) c4 | z2 d3 cde | f2 d2 (c4 | F3 G AB c2- | c2 =B2) c4 | z2 c2 d4 | G2 A2 B3 A | %16
w: o- nem i\-|* * stam,|ha- bi- ta- ti-|o- nem i\-||* * stam,|et om-|nes in- si- di-|
 G4 B4- | B2 c2 (d3 e | f2) e2 z2 f2 | e2 f2 g2 cc | (f2 e3 d d2- | d2) ^c2 z2 A2 | G4 A4 | c4 C4 | %24
w: as i\-|* ni- mi\- *|* ci ab|e- a lon- ge re-|pel\- * * *|* le, ab|e- a|lon- ge|
 z2 F2 c4 | G4 z4 | z4 z2 d2 | c2 d2 f4 | F2 F2 (A2 F2 | E2 A4 GF | G4) A4 || z2 B3 B A2 | %32
w: re- pel-|le,|ab|e- a lon-|ge re- pel\- *||* le:|an- ge- li|
 B2 c2 (F>G AB) | c2 c3 c c2 | c2 B2 f4 | e2 g3 f e2 | f2 (d3 cBc | d3 c) =B4 | c3 _B A2 G2 | %39
w: tu- i san\- * * *|cti, an- ge- li|tu- i san-|cti ha- bi- tent|in e\- * * *|* * a,|ha- bi- tent in|
 (F2 GB) A2 f2- | fe d2 ^c2 (d2- | d2 ^c2) d4 | z8 | z2 d2 B2 c2 | d2 c2 z c2 f- | %45
w: e\- * * a, ha\-|* bi- tent in e\-|* * a,||qui nos in|pa- ce cu- sto\-|
 f (e/d/ e2) f2 A2 | BG c>B A2 F2 | D2 z2 z2 A2 | dc f>e d (f2 e | f>e dc B f2 e) | f4 z2 z c | %51
w: * di\- * * ant: et|be- ne- di- cti- o tu-|a, et|be- ne- di- cti- o tu\- *||a sit|
 c2 GA B2 FF | (G2 F2) F4 | z4 z c f2 | de f2 c4 | z d g2 ef (g2 | c>A B) c2 E A>F | G (AGc) c4 | %58
w: su- per nos sem- per, nos|sem\- * per,|sit su-|per nos sem- per,|sit su- per nos sem\-|* * * per, sit su- per|nos sem\- * * per.|
 z2 c2 d3 d | B2 B B2 (A2 G/F/) | G2 z G c3 c | d3 c =B (c2 B) | c4 z2 c2- | cB A2 G4 | %64
w: Per Chri- stum|Do- mi- num no\- * *|strum, per Chri- stum|Do- mi- num no\- *|strum, Do\-|* mi- num no-|
 !fermata!A8 || (B2 F3 G A2 | B4 A3 G) | F4 z4 | (F3 G AB c2- | c2 A2 d4- | d2 c2) !fermata!c4 |] %71
w: strum.|A\- * * *||men.|A\- * * * *||* * men.|
V:4
 F,6 G,2 | A,2 B,3 B, G,2 | B,3 A, G,4 | z2 F,3 D, C,2 | F,3 F, G, (G,2 F, | E,2) F,2 C,4 | %6
w: Vi- si-|ta quae- su- mus|Do- mi- ne,|vi- si- ta|quae- su- mus Do\- *|* mi- ne,|
[M:4/4] D,2 B,,2 F,4- | F,4 z4 | z2 D,3 C,D,E, | F,2 D,2 (C,2 F,2- | F,E,F,D, G,4) | F,4 z2 A,2- | %12
w: Do- mi- ne,||ha- bi- ta- ti-|o- nem i\- *||stam, ha\-|
 A,G,A,B, C2 A,2 | G,4 C,4 | z2 F,2 D,4 | E,2 F,2 B,,3 F, | C,4 G,4- | G,2 A,2 B,4 | A,4 z4 | %19
w: * bi- ta- ti- o- nem|i- stam,|et om-|nes in- si- di-|as i\-|* ni- mi-|ci|
 z2 F,2 E,2 F,2 | A,4 A,,4 | z2 A,,2 (F,4 | E,4) D,4 | z2 F,2 G,2 A,2 | C4 C,4- | C,2 E,2 (A,4 | %26
w: ab e- a|lon- ge|re- pel\-|* le,|ab e- a|lon- ge|* re- pel\-|
 G,4) F,4 | F,2 D,4 B,,2 | (B,,C, D,2) A,,4- | A,,2 A,,2 C,4- | C,4 F,4 || z8 | z8 | %33
w: * le,|ab e- a|lon\- * * ge|* re- pel\-|* le:|||
 z2 F,3 F, E,2 | F,2 G,2 (F,>G, A,B,) | C4 C,3 C, | F,2 G,2 D,4- | D,4 G,4 | F,6 C,2 | %39
w: an- ge- li|tu- i san\- * * *|cti ha- bi-|tent in e\-|* a,|ha- bi-|
 D,2 E,2 (F,3 G, | A,2 B,2 A,4- | A,4 D,4 | z8 | z8 | z2 F,2 E,2 F,2 | G,4 F, D,2 F,- | %46
w: tent in e\- *||* a,|||qui nos in|pa- ce cu- sto-|
 F, E,/D,/ E,2) F,2 D,A,- | A,F, B,>A, G, (D C2) | F,2 z F, B,A, C>B, | A, (F,>G,A, G,F,) C,2 | %50
w: * di\- * * ant: et be\-|* ne- di- cti- o tu\- *|a, et be- ne- di- cti-|o tu\- * * * * a|
 z F, F,2 D,E, F,2 | C,4 z4 | z2 z C C2 A,B, | (CA, G,2) F,2 z D, | G,2 F,D, F,2 C,2 | %55
w: sit su- per nos sem-|per,|sit su- per nos|sem\- * * per, sit|su- per nos sem- per,|
 D,2 C,3 D, E,2 | (F,4 C,4- | C,4) F,4 | z2 F,2 B,,3 D, | _E,2 E, E,2 (F, D,2) | C,4 z C, F,2 | %61
w: sit su- per nos|sem\- *|* per.|Per Chri- stum|Do- mi- num no\- *|strum, per Chri-|
 B,,B,>B,F, G,4 | C, C,2 B,, A,,4 | C,8 | !fermata!F,8 || (B,,3 C, D,E, F,2) | B,,2 (D,3 E,F,G, | %67
w: stum Do- mi- num no-|strum, Do- mi- num|no-|strum.|A\- * * * *|men. A\- * * *|
 A,2 D,2 (F,3 G, | A,B, C2) F,4 | F,3 _E, D,C, B,,2) | !fermata!F,8 |] %71
w: * men. A\- *|* * * men.|A\- * * * *|men.|

